packages/core/assets/Icons/crisis_alert.svg

<svg viewBox="0 0 20 20" fill="none" xmlns="http://www.w3.org/2000/svg">
<path d="M9.99984 18.3333C8.84706 18.3333 7.76373 18.1146 6.74984 17.6771C5.73595 17.2396 4.854 16.6458 4.104 15.8958C3.354 15.1458 2.76025 14.2639 2.32275 13.25C1.88525 12.2361 1.6665 11.1528 1.6665 10C1.6665 8.41667 2.0797 6.95486 2.90609 5.61458C3.73248 4.27431 4.854 3.25 6.27067 2.54167C6.28456 2.80556 6.31234 3.07292 6.354 3.34375C6.39567 3.61458 6.46511 3.93056 6.56234 4.29167C5.56234 4.90278 4.77414 5.71181 4.19775 6.71875C3.62136 7.72569 3.33317 8.81944 3.33317 10C3.33317 11.8611 3.979 13.4375 5.27067 14.7292C6.56234 16.0208 8.13873 16.6667 9.99984 16.6667C11.8609 16.6667 13.4373 16.0208 14.729 14.7292C16.0207 13.4375 16.6665 11.8611 16.6665 10C16.6665 8.81944 16.3783 7.72222 15.8019 6.70833C15.2255 5.69444 14.4304 4.88194 13.4165 4.27083C13.5137 3.90972 13.5832 3.59375 13.6248 3.32292C13.6665 3.05208 13.7012 2.79167 13.729 2.54167C15.1457 3.25 16.2672 4.27083 17.0936 5.60417C17.92 6.9375 18.3332 8.40278 18.3332 10C18.3332 11.1528 18.1144 12.2361 17.6769 13.25C17.2394 14.2639 16.6457 15.1458 15.8957 15.8958C15.1457 16.6458 14.2637 17.2396 13.2498 17.6771C12.2359 18.1146 11.1526 18.3333 9.99984 18.3333ZM9.99984 15C8.61095 15 7.43039 14.5139 6.45817 13.5417C5.48595 12.5694 4.99984 11.3889 4.99984 10C4.99984 9.19444 5.17692 8.4375 5.53109 7.72917C5.88525 7.02083 6.38873 6.43056 7.0415 5.95833C7.11095 6.16667 7.18734 6.40625 7.27067 6.67708C7.354 6.94792 7.46511 7.28472 7.604 7.6875C7.29845 8.00694 7.06581 8.36111 6.90609 8.75C6.74636 9.13889 6.6665 9.55556 6.6665 10C6.6665 10.9167 6.99289 11.7014 7.64567 12.3542C8.29845 13.0069 9.08317 13.3333 9.99984 13.3333C10.9165 13.3333 11.7012 13.0069 12.354 12.3542C13.0068 11.7014 13.3332 10.9167 13.3332 10C13.3332 9.55556 13.2533 9.13889 13.0936 8.75C12.9339 8.36111 12.7012 8.00694 12.3957 7.6875C12.5068 7.35417 12.6075 7.04514 12.6978 6.76042C12.788 6.47569 12.8679 6.20833 12.9373 5.95833C13.5901 6.43056 14.0971 7.02083 14.4582 7.72917C14.8193 8.4375 14.9998 9.19444 14.9998 10C14.9998 11.3889 14.5137 12.5694 13.5415 13.5417C12.5693 14.5139 11.3887 15 9.99984 15ZM9.74984 7.08333C9.56928 7.08333 9.41303 7.03125 9.28109 6.92708C9.14914 6.82292 9.05539 6.6875 8.99984 6.52083L8.1665 3.8125C8.06928 3.45139 8.00331 3.13542 7.96859 2.86458C7.93386 2.59375 7.9165 2.33333 7.9165 2.08333C7.9165 1.5 8.11789 1.00694 8.52067 0.604167C8.92345 0.201389 9.4165 0 9.99984 0C10.5832 0 11.0762 0.201389 11.479 0.604167C11.8818 1.00694 12.0832 1.5 12.0832 2.08333C12.0832 2.33333 12.0658 2.59375 12.0311 2.86458C11.9964 3.13542 11.9304 3.45139 11.8332 3.8125L10.9998 6.52083C10.9443 6.6875 10.8505 6.82292 10.7186 6.92708C10.5866 7.03125 10.4304 7.08333 10.2498 7.08333H9.74984ZM9.99984 11.6667C9.5415 11.6667 9.14914 11.5035 8.82275 11.1771C8.49636 10.8507 8.33317 10.4583 8.33317 10C8.33317 9.54167 8.49636 9.14931 8.82275 8.82292C9.14914 8.49653 9.5415 8.33333 9.99984 8.33333C10.4582 8.33333 10.8505 8.49653 11.1769 8.82292C11.5033 9.14931 11.6665 9.54167 11.6665 10C11.6665 10.4583 11.5033 10.8507 11.1769 11.1771C10.8505 11.5035 10.4582 11.6667 9.99984 11.6667Z" fill="currentColor"/>
</svg>

<svg xmlns="http://www.w3.org/2000/svg" width="20" height="20" fill="none" viewBox="0 0 20 20">
  <path fill="#201F1F" d="M10 18.333a8.115 8.115 0 0 1-3.25-.656 8.416 8.416 0 0 1-2.646-1.781 8.415 8.415 0 0 1-1.781-2.646A8.115 8.115 0 0 1 1.667 10c0-1.583.413-3.045 1.24-4.385A8.166 8.166 0 0 1 6.27 2.542c.014.264.041.53.083.802.042.27.111.587.208.948a6.712 6.712 0 0 0-2.364 2.427A6.492 6.492 0 0 0 3.333 10c0 1.861.646 3.438 1.938 4.73 1.291 1.29 2.868 1.937 4.729 1.937 1.86 0 3.437-.646 4.729-1.938 1.292-1.291 1.938-2.868 1.938-4.729 0-1.18-.289-2.278-.865-3.292a6.634 6.634 0 0 0-2.386-2.437 8.85 8.85 0 0 0 .209-.948c.041-.27.076-.531.104-.781a8.188 8.188 0 0 1 3.365 3.062A8.182 8.182 0 0 1 18.334 10a8.115 8.115 0 0 1-.657 3.25 8.415 8.415 0 0 1-1.781 2.646 8.416 8.416 0 0 1-2.646 1.781 8.114 8.114 0 0 1-3.25.656ZM10 15c-1.389 0-2.57-.486-3.542-1.458C5.486 12.569 5 11.389 5 10c0-.806.177-1.563.531-2.27a4.818 4.818 0 0 1 1.51-1.772c.07.209.146.448.23.72.083.27.194.607.333 1.01A3.258 3.258 0 0 0 6.666 10c0 .916.327 1.7.98 2.353a3.21 3.21 0 0 0 2.354.98 3.21 3.21 0 0 0 2.354-.98 3.21 3.21 0 0 0 .98-2.354 3.258 3.258 0 0 0-.938-2.313c.11-.333.211-.642.302-.927.09-.284.17-.552.24-.802a4.912 4.912 0 0 1 1.52 1.771A4.93 4.93 0 0 1 15 10c0 1.389-.486 2.57-1.459 3.542C12.57 14.514 11.39 15 10 15Zm-.25-7.917a.734.734 0 0 1-.469-.156A.845.845 0 0 1 9 6.521l-.834-2.708a7.278 7.278 0 0 1-.197-.948 6.146 6.146 0 0 1-.053-.782c0-.583.202-1.076.605-1.479A2.012 2.012 0 0 1 10 0c.583 0 1.076.201 1.479.604.403.403.604.896.604 1.48 0 .25-.017.51-.052.78-.035.271-.1.587-.198.949L11 6.52a.845.845 0 0 1-.281.406.734.734 0 0 1-.47.156h-.5Zm.25 4.584c-.459 0-.85-.163-1.177-.49A1.605 1.605 0 0 1 8.333 10c0-.458.163-.85.49-1.177.326-.326.718-.49 1.177-.49.458 0 .85.164 1.177.49.326.326.49.719.49 1.177 0 .458-.164.85-.49 1.177-.326.327-.719.49-1.177.49Z"/>
</svg>
